X:1
T:Pauls Steeple
T:Pauls Steeple
T:The Division Flute
T:John Walsh (1665 – 1736)
C:John Walsh (1665 – 1736)
L:1/8
M:4/4
K:Bb
V:1 treble nm="Piano" snm="Pno."
V:1
 a | b>a ga b2 b>c' | afff f3 f | g^fga b2 a>g | d'd'd'd' d'3 c' | gggg g3 g | c'c'c'c' c'3 c' | %7
 d'2 c'>b ag ^g>f | gGBd g2 || d'>c' | ba/b/ ga bd'c'b | ag/a/ fg ac'ba | ba/b/ ga b2 c'2 | %13
 d'c'/b/ a/b/g/b/ ^f2 d2 | b2 f2 B2 d'2 | c'2 c2 A2 c'2 | d'b c'a bg a^f | g2 G2 g3 || a | %19
 db/a/ g^f gbag | fa/g/ f^e fagf | gg/a/ ba g2 a2 | ^f2 A2 d2 ^f2 | gg/a/ bf/e/ dc/d/ B2 | %24
 ff/g/ aa/b/ c'b/c'/ ag/^f/ | gd' ac' d'b ^fd | g>G Bd g3 || a | %28
 b/a/g/f/ g/a/b/c'/ d'/c'/d'/c'/ c'/b/a/g/ | f/^e/f/g/ a/b/c'/d'/ c'/b/a/g/ f/g/a/g/ | %30
 g/^f/g/a/ b/a/g/f/ e/d/c/B/ cd'/^c'/ | d'a/b/ ag/a/ ^f^e/f/ dd | bf/g/ fe/f/ dc/d/ Gd' | %33
 c'a/b/ ag/a/ fA/B/ AF | b/a/g/^f/ g/a/b/c'/ d'g ^f/g/a/f/ | gd/e/ d/c/B/A/ G4 || bg BG fb df | %37
 af cA Ff ac' | bg GA BABc | da ^fa dA ^fd | bf dB fb df | af Ac Fc'af | gb^fa gd'/c'/ b/a/g/^f/ | %43
 g2 G2 g3 || z2 d'c' | b>ab g>ab b>c'd' d'>e'f' | a>bc' f>ga A>Bc F>c'd' | b>ab g>ag d'>c'b a>bg | %48
 ^f>ga d>^cd A>GA d>d'c' | b>fe d>cd B>ba b>c'd' | c'>bc' f>ef c>Bc F2 d' | %51
 (c'd')a (bd')g (fa)d g>a^f | g2 d B>cd | G6 || b/a/ | g^fga G>b a/b/a/g/ | %56
 af cA/B/ c/B/A/G/ Fc'/a/ | b g2 a b d'2 g/a/ | ^f d2 a/g/ ^f d2 d'/c'/ | bB- B/A/B/c/ dB ba/b/ | %60
 c'f- f/^e/f/g/ af c'b/a/ | d'e'/d'/ c'b/a/ bc'/b/ ag/^f/ | gB dd G3 || A | %64
 B/A/B/c/ B/A/G/^F/ G/A/B/c/ d/c/d/c/ | A/B/A/G/ F/G/B/c/ c/d/c/B/ A/B/c/A/ | %66
 B/c/B/A/ G/^F/G/A/ B/A/B/c/ d/^c/d/^e/ | ^f/^e/f/g/ a/^f/^e/f/ d/a/g/a/ ^f/g/a/d/ | %68
 B/A/B/c/ d/c/d/e/ f/e/d/c/ B/c/d/e/ | f/^e/f/g/ a/g/a/b/ c'/b/a/g/ f/g/a/b/ | %70
 d'g/a/ ba/d/ gB/c/ dd | G6 |] %72

